modules/micon/icons/BackSpaceQWERTYLg.svg

<svg xmlns="http://www.w3.org/2000/svg" viewBox="0 0 1101 1024"><path d="M448 64h653v896h-653l-448-448zm589 832v-768h-562.5l-384 384 384 384h562.5zm-566.5-553.5l45.5-45 169.5 169 169-169 45.5 45-169.5 169.5 169.5 169.5-45.5 45-169-169-169.5 169-45.5-45 169.5-169.5z"/></svg>

<svg xmlns="http://www.w3.org/2000/svg" viewBox="0 0 1101 1024"><path d="M448 64h653v896H448L0 512zm589 832V128H474.5l-384 384 384 384H1037zM470.5 342.5l45.5-45 169.5 169 169-169 45.5 45L730.5 512 900 681.5l-45.5 45-169-169-169.5 169-45.5-45L640 512z"/></svg>
